!!!COM: Music21
!!!OTL: A Rianxeira
!!!OMV: pezas_foliadas_a-rianxeira_a-rianxeira-partitura.musicxml
**kern
*part1
*staff1
*I"Bagpipes
*I'Bag
*clefG^2
*ITrd1c2
*k[b-e-]
*M3/4
=1
!LO:TX:a:t=Presto
4.ff
8ff
4ff
=
4ff
4gg
4ff
=
2.ff
=
2.dd
=
4.ff
8ff
4ff
=
4ff
4gg
4ff
=
4ee-
8ee-L
8ddJ
8ccL
8ddJ
=
4ee-
8ee-L
8ddJ
8ccL
8ddJ
=
[2.ee-
=
2.ee-]
!!linebreak:original
=
4.aa
8aa
4aa
=
4bb-
4aa
4gg
=
2gg
4ff
=
4aa
4gg
4ff
=
2ff
4ee-
=
4gg
4ff
4ee-
=
[2.dd
=
2.dd]
=||
*M3/4
!LO:TX:a:t=Presto
4.ff
8ff
4ff
=
4ff
4gg
4ff
=
2.ff
=
2.dd
!!linebreak:original
=
4.ff
8ff
4ff
=
4ff
4gg
4ff
=
4ee-
8ee-L
8ddJ
8ccL
8ddJ
=
4ee-
8ee-L
8ddJ
8ccL
8ddJ
=
[2.ee-
=
2.ee-]
=
4.aa
8aa
4aa
=
4bb-
4aa
4gg
=
2gg
4ff
=
4aa
4gg
4ff
=
2ff
4ee-
!!linebreak:original
=
4gg
4ff
4ee-
=
[2.dd
=
2dd]
4cc
=||
4dd
4dd
4dd
=
4dd
2ee-
=
4ff
4ff
4ff
=
4gg
4gg
4gg
=
2ff
4ff
=
2ee-
4ee-
=
[2.dd
=
2dd]
4cc
=
4dd
4dd
4dd
=
4dd
2ee-
!!linebreak:original
=
4ff
4ff
4ff
=
4gg
4gg
4gg
=
2ff
4ff
=
2ee-
4ee-
=
[2.dd
=
2dd]
4ff
=||
4gg
4gg
4gg
=
4gg
2gg
=
4gg
4ff
4dd
=
4ff
4ff
4ff
=
4ff
2aa
=
2gg
4gg
=
[2.ff
=
2ff]
4ff
!!linebreak:original
=||
4gg
4gg
4gg
=
4gg
2gg
=
4gg
4ff
4dd
=
4ff
4ff
4ff
=
4ff
2gg
=
2ee-
4ee-
=
[2.dd
=
2.dd]
=||
4ff
4ff
4ff
=
2ff
4dd
=
4ff
4ff
4ff
=
2ff
4dd
=
4ff
4ff
4ff
!!pagebreak:original
=
4gg
4gg
4gg
=
[2.aa
=
2.aa]
=
4.aa
8aa
4aa
=
4bb-
4aa
4gg
=
2bb-
4gg
=
2.ff
=
4.aa
8gg
4ff
=
4gg
4ff
4ee-
=
[2.dd
=
2.dd]
=||
4ff
4ff
4ff
=
2ff
4dd
!!linebreak:original
=
4ff
4ff
4ff
=
2ff
4dd
=
4ff
4ff
4ff
=
4gg
4gg
4gg
=
[2.aa
=
2.aa]
=
4.aa
8aa
4aa
=
4bb-
4aa
4gg
=
2bb-
4gg
=
2.ff
=
4.aa
8gg
4ff
=
4gg
4ff
4ee-
=
[2.dd
!!linebreak:original
=
2.dd]
=||
*-
!!!system-decoration: s1,s2
